!!!SOCIAL_FUNCTION:	songs of the drum religion
!!!PDT:	1932
!!!OTL: No_86_Song_for_Owner_of_Drum_(a).krn
!!!REG: Wisconsin
!!!LANG: Non-Tone
!!!LING_GROUP: Algonquin
**kern
*staff1
=1-
*clefF4
*k[b-e-]
*M3/4
4d\
8d\L
8d\J
8.c\L
16B-\Jk
=2||
*M2/4
8.B-\L
16B-\Jk
8B-\L
16F\Jk
16r
=3||
*M3/4
4d\
8d\L
8d\J
8.c\L
16B-\Jk
=4
8.B-\L
16B-\Jk
8B-\
8r
4r
=5
=
4c\
8.c\L
16B-\Jk
8.B-\L
16B-\Jk
=6||
*M2/4
4F\
4E-\
=7
8.C/L
16C/Jk
16C/LL
16C/JJ
8r
=8||
*M3/4
4E-\
8E-\L
8E-\J
16C/LK
8C/
16C/Jk
=9||
*M2/4
8BB-/L
8BB-/J
[4BB-/
=10
4BB-/]
8BB-/
8r
==:|!
*-
